X: 19354
T: Jack Rowe
R: reel
M: 4/4
K: Gmajor
|:EAAF GFED|(3EFG AB cAFA|GBdg egdB|GBAF GFED|
EAAF GFED|(3EFG AB cAFA|~G3B ~A2BA|1 GEDE GFED:|2 GEDE GABd||
|:~g3e fddd|efge fddd|eBBB efge|fdef gfef|
gabg eage|dedc BcBA|Bddc BcBA|1 GEDE GABd:|2 GEDE G4||

